_site/images/registration/404-error.svg

<svg height="253" viewBox="0 0 294 253" width="294" xmlns="http://www.w3.org/2000/svg"><g fill="#0b7a76"><path d="m97.7887682 83.8142763h12.1602938v5.5625726c0 1.8023401 2.149852 2.6231511 4.147312 2.6231511s4.147876-.820811 4.147876-2.6231511v-5.5625726h2.176379c1.302103 0 2.579371-1.9309148 2.579371-3.8985651 0-2.6788284-1.337096-3.899139-2.579371-3.899139h-2.176379v-3.6488777c0-1.185297-1.086496-2.5697697-4.147876-2.5697697-3.060816 0-4.147312 1.3844727-4.147312 2.5697697v3.6488777h-4.310992l9.202765-18.770167c.138282-.3283244.266968-.6813305.266968-1.0383546 0-1.9590404-2.723296-3.2080506-4.147312-3.2080506-1.521095 0-2.750388.7691515-3.46042 2.1656781l-12.0733742 24.0773126c-.3713843.6928103-.4266968 1.3178894-.4266968 1.628994 0 1.7598646 1.1203612 2.9422916 2.7887682 2.9422916z"/><path d="m135.751006 89.1623942c2.207043 1.8833868 5.309755 2.8376058 9.222835 2.8376058 8.399956 0 13.026159-4.444292 13.026159-12.5141606v-13.9716788c0-8.0698686-4.626203-12.5141606-13.026159-12.5141606-3.91308 0-7.015792.9547883-9.222835 2.8376058-2.489107 2.1236497-3.751006 5.3791533-3.751006 9.6765548v13.9722482c0 4.2968321 1.261899 7.5523357 3.751006 9.6759854zm13.89112-9.6759854c0 3.4029635-1.614479 5.2015182-4.668854 5.2015182-3.062905 0-4.615967-1.7501606-4.615967-5.2015182v-13.9722482c0-3.4513577 1.553062-5.2009489 4.615967-5.2009489 3.054375 0 4.668854 1.7985547 4.668854 5.2009489z"/><path d="m145.524211 70c-1.580235 0-2.524211.9252317-2.524211 2.4757888 0 1.533375.990316 2.5242112 2.524211 2.5242112 1.504218 0 2.475789-.9908362 2.475789-2.5242112 0-1.5271269-.948662-2.4757888-2.475789-2.4757888z"/><path d="m169.788768 83.8142763h12.160294v5.5625726c0 1.8023401 2.149852 2.6231511 4.147312 2.6231511s4.147876-.820811 4.147876-2.6231511v-5.5625726h2.176944c1.301538 0 2.578806-1.9309148 2.578806-3.8985651 0-2.6788284-1.336532-3.899139-2.578806-3.899139h-2.176944v-3.6488777c0-1.185297-1.086496-2.5697697-4.147876-2.5697697-3.060816 0-4.147312 1.3844727-4.147312 2.5697697v3.6488777h-4.310992l9.202765-18.770167c.138282-.3283244.266968-.6813305.266968-1.0383546 0-1.9590404-2.723296-3.2080506-4.147312-3.2080506-1.521095 0-2.750388.7691515-3.46042 2.1656781l-12.073374 24.0773126c-.37082.6928103-.426697 1.3178894-.426697 1.628994 0 1.7598646 1.120926 2.9422916 2.788768 2.9422916z"/><path d="m289.692794 215.677819h-9.693368v-145.723544c0-9.8278348-7.979328-17.8235955-17.78754-17.8235955h-45.408556c-.504737 0-.98708.0914886-1.437266.2514499-8.546655-30.1970007-36.308355-52.3821294-69.144416-52.3821294h-.000574c-32.74476 0-60.4421478 22.0619931-69.0714903 52.1306795h-44.788975c-9.8076371 0-17.7869653 7.9957607-17.7869653 17.8235955v145.723544h-10.26701119c-2.37898363 0-4.30663221 1.932194-4.30663221 4.315501v20.029105c0 7.155676 5.80935975 12.977575 12.9509044 12.977575h268.0981916c7.141544 0 12.950904-5.821899 12.950904-12.977575v-20.029105c-.000574-2.383307-1.928223-4.315501-4.307206-4.315501zm-27.480333-154.916137c5.058857 0 9.174275 4.123893 9.174275 9.192593v145.723544h-12.058571v-131.4547707c0-6.5912089-5.351134-11.953363-11.928797-11.953363h-29.320126v-.2646841c0-3.8241095-.302038-7.5785956-.877979-11.2433192zm-179.2345684 11.2433192c0-34.944052 28.3709444-63.37399873 63.2443294-63.37399873 34.872237 0 63.243756 28.42937133 63.243756 63.37399873v31.5963738c0 6.50605-5.281654 11.79858-11.774333 11.79858h-32.176285c-1.697961 0-3.238013 1.000046-3.931668 2.553626l-13.572782 30.40472c-.569624.84814-1.431524.943657-1.788688.943657-.357163 0-1.219064-.095517-1.788688-.943657l-13.572782-30.40472c-.693655-1.55358-2.233706-2.553626-3.931668-2.553626h-32.1762847c-6.4926787 0-11.7749067-5.293106-11.7749067-11.79858zm-59.7904105-2.0507262c0-5.0687 4.1154177-9.192593 9.1737008-9.192593h42.881424c-.5759402 3.6647236-.8779787 7.4192097-.8779787 11.2433192v.2646841h-27.7639966c-6.5776629 0-11.928797 5.3621541-11.928797 11.953363v131.4547707h-11.4843525zm262.1986789 170.06815c0 2.396541-1.946023 4.346573-4.33764 4.346573h-268.0976166c-2.3916164 0-4.33763997-1.950032-4.33763997-4.346573v-15.713603h58.40654607c2.3789836 0 4.3066322-1.932194 4.3066322-4.315502 0-2.383307-1.9276486-4.315501-4.3066322-4.315501h-23.7347114v-131.4547707c0-1.8320741 1.4877978-3.3223605 3.3155325-3.3223605h27.7639966v22.7006872c0 11.265184 9.1461384 20.429583 20.3881711 20.429583h29.3850127l12.546081 28.104846c.060293.135219.128051.266985.202125.395875 1.948894 3.382202 5.438989 5.401857 9.336778 5.401857 3.89779 0 7.387884-2.01908 9.336779-5.401857.074074-.128314.141258-.260656.202125-.395875l12.546081-28.104846h29.385013c11.241458 0 20.387596-9.164974 20.387596-20.429583v-22.7006872h29.320127c1.828309 0 3.315532 1.4902864 3.315532 3.3223605v131.4547707h-68.283663-70.865346-27.3207006c-2.3789837 0-4.3066323 1.932194-4.3066323 4.315501 0 2.383308 1.9276486 4.315502 4.3066323 4.315502h23.5222506c1.949469 8.214988 9.32874 14.345301 18.114844 14.345301h42.233132c8.786104 0 16.165375-6.130313 18.114844-14.345301h99.154751zm-108.234855-15.713603c-1.612977 3.376448-5.05656 5.714299-9.03474 5.714299h-42.233132c-3.978754 0-7.422337-2.337851-9.03474-5.714299z"/><path d="m84.2998904 177.885164h18.1892636l1.073194 2.153527-1.121924 2.344977h-18.0488076c-1.3873555 0-2.6892913.668929-3.4970532 1.797568-.8071887 1.128065-1.0204516 2.576551-.5727142 3.889188 3.4534835 10.126219 12.9631752 16.929576 23.663585 16.929576 9.340572 0 17.68993-5.069415 22.013663-13.139552h44.002103c4.323734 8.070137 12.673092 13.139552 22.013664 13.139552 10.700409 0 20.210101-6.803357 23.663584-16.929576.447738-1.312637.234475-2.761123-.572714-3.889188-.807188-1.128066-2.109697-1.797568-3.497053-1.797568h-18.048808l-1.121923-2.344977 1.073194-2.153527h18.189263c1.376463 0 2.670373-.659184 3.479281-1.773492.808909-1.114309 1.035357-2.547892.608832-3.857089-3.361758-10.320536-12.915593-17.254583-23.773656-17.254583-9.154827 0-17.431378 4.9307-21.8176 12.77958h-24.120495c-2.375129 0-4.299655 1.924819-4.299655 4.299029 0 2.374211 1.924526 4.299029 4.299655 4.299029h26.807493c1.738208 0 3.306149-1.04667 3.971736-2.652787 2.551129-6.151624 8.501279-10.126793 15.158866-10.126793 4.895301 0 9.386434 2.147795 12.432884 5.689048h-13.597231c-1.63043 0-3.120404.922285-3.847905 2.381089l-3.197224 6.413578c-.59106 1.185386-.602525 2.577698-.030958 3.772828l3.197224 6.682984c.714316 1.493196 2.223209 2.444141 3.878863 2.444141h13.350144c-3.045876 3.377317-7.437258 5.419643-12.185797 5.419643-6.79231 0-12.78603-4.086944-15.270084-10.412248-.646668-1.645669-2.234101-2.727304-4.00212-2.727304h-49.485023c-1.768018 0-3.356025 1.082208-4.002119 2.727304-2.484055 6.325304-8.477775 10.412248-15.270084 10.412248-4.7485399 0-9.1393482-2.042326-12.1857975-5.419643h13.3501445c1.655654 0 3.164546-.950372 3.878862-2.444141l3.197224-6.682984c.571568-1.19513.560675-2.587442-.030957-3.772828l-3.197224-6.413578c-.727502-1.458804-2.217476-2.381089-3.847905-2.381089h-13.5978047c3.045876-3.541253 7.537583-5.689048 12.4334577-5.689048 6.657587 0 12.607737 3.975169 15.158866 10.126793.665586 1.606117 2.233528 2.652787 3.971735 2.652787h5.762685c2.37513 0 4.299656-1.924818 4.299656-4.299029 0-2.37421-1.924526-4.299029-4.299656-4.299029h-3.075687c-4.385649-7.849454-12.662772-12.77958-21.817599-12.77958-10.8580639 0-20.4118987 6.934047-23.7742294 17.255156-.4259526 1.309198-.2000773 2.74278.6094045 3.857089.8094818 1.114308 2.102245 1.772919 3.4792813 1.772919z"/></g></svg>

<?xml version="1.0" encoding="UTF-8"?>
<svg width="294px" height="253px" viewBox="0 0 294 253" version="1.1" xmlns="http://www.w3.org/2000/svg" xmlns:xlink="http://www.w3.org/1999/xlink">
    <!-- Generator: Sketch 52.6 (67491) - http://www.bohemiancoding.com/sketch -->
    <title>404-error</title>
    <desc>Created with Sketch.</desc>
    <g id="Landing-page" stroke="none" stroke-width="1" fill="none" fill-rule="evenodd">
        <g id="1.14--404---page-not-found" transform="translate(-213.000000, -291.000000)" fill="#0B7A76" fill-rule="nonzero">
            <g id="404-error" transform="translate(213.000000, 291.000000)">
                <path d="M97.7887682,83.8142763 L109.949062,83.8142763 L109.949062,89.3768489 C109.949062,91.179189 112.098914,92 114.096374,92 C116.093834,92 118.24425,91.179189 118.24425,89.3768489 L118.24425,83.8142763 L120.420629,83.8142763 C121.722732,83.8142763 123,81.8833615 123,79.9157112 C123,77.2368828 121.662904,76.0165722 120.420629,76.0165722 L118.24425,76.0165722 L118.24425,72.3676945 C118.24425,71.1823975 117.157754,69.7979248 114.096374,69.7979248 C111.035558,69.7979248 109.949062,71.1823975 109.949062,72.3676945 L109.949062,76.0165722 L105.63807,76.0165722 L114.840835,57.2464052 C114.979117,56.9180808 115.107803,56.5650747 115.107803,56.2080506 C115.107803,54.2490102 112.384507,53 110.960491,53 C109.439396,53 108.210103,53.7691515 107.500071,55.1656781 L95.4266968,79.2429907 C95.0553125,79.935801 95,80.5608801 95,80.8719847 C95,82.6318493 96.1203612,83.8142763 97.7887682,83.8142763 Z" id="Path"></path>
                <path d="M135.751006,89.1623942 C137.958049,91.045781 141.060761,92 144.973841,92 C153.373797,92 158,87.555708 158,79.4858394 L158,65.5141606 C158,57.444292 153.373797,53 144.973841,53 C141.060761,53 137.958049,53.9547883 135.751006,55.8376058 C133.261899,57.9612555 132,61.2167591 132,65.5141606 L132,79.4864088 C132,83.7832409 133.261899,87.0387445 135.751006,89.1623942 Z M149.642126,79.4864088 C149.642126,82.8893723 148.027647,84.687927 144.973272,84.687927 C141.910367,84.687927 140.357305,82.9377664 140.357305,79.4864088 L140.357305,65.5141606 C140.357305,62.0628029 141.910367,60.3132117 144.973272,60.3132117 C148.027647,60.3132117 149.642126,62.1117664 149.642126,65.5141606 L149.642126,79.4864088 Z" id="Shape"></path>
                <path d="M145.524211,70 C143.943976,70 143,70.9252317 143,72.4757888 C143,74.0091638 143.990316,75 145.524211,75 C147.028429,75 148,74.0091638 148,72.4757888 C148,70.9486619 147.051338,70 145.524211,70 Z" id="Path"></path>
                <path d="M169.788768,83.8142763 L181.949062,83.8142763 L181.949062,89.3768489 C181.949062,91.179189 184.098914,92 186.096374,92 C188.093834,92 190.24425,91.179189 190.24425,89.3768489 L190.24425,83.8142763 L192.421194,83.8142763 C193.722732,83.8142763 195,81.8833615 195,79.9157112 C195,77.2368828 193.663468,76.0165722 192.421194,76.0165722 L190.24425,76.0165722 L190.24425,72.3676945 C190.24425,71.1823975 189.157754,69.7979248 186.096374,69.7979248 C183.035558,69.7979248 181.949062,71.1823975 181.949062,72.3676945 L181.949062,76.0165722 L177.63807,76.0165722 L186.840835,57.2464052 C186.979117,56.9180808 187.107803,56.5650747 187.107803,56.2080506 C187.107803,54.2490102 184.384507,53 182.960491,53 C181.439396,53 180.210103,53.7691515 179.500071,55.1656781 L167.426697,79.2429907 C167.055877,79.935801 167,80.5608801 167,80.8719847 C167,82.6318493 168.120926,83.8142763 169.788768,83.8142763 Z" id="Path"></path>
                <path d="M289.692794,215.677819 L279.999426,215.677819 L279.999426,69.954275 C279.999426,60.1264402 272.020098,52.1306795 262.211886,52.1306795 L216.80333,52.1306795 C216.298593,52.1306795 215.81625,52.2221681 215.366064,52.3821294 C206.819409,22.1851287 179.057709,0 146.221648,0 L146.221074,0 C113.476314,0 85.7789262,22.0619931 77.1495837,52.1306795 L32.3606087,52.1306795 C22.5529716,52.1306795 14.5736434,60.1264402 14.5736434,69.954275 L14.5736434,215.677819 L4.30663221,215.677819 C1.92764858,215.677819 0,217.610013 0,219.99332 L0,240.022425 C0,247.178101 5.80935975,253 12.9509044,253 L281.049096,253 C288.19064,253 294,247.178101 294,240.022425 L294,219.99332 C293.999426,217.610013 292.071777,215.677819 289.692794,215.677819 Z M262.212461,60.761682 C267.271318,60.761682 271.386736,64.885575 271.386736,69.954275 L271.386736,215.677819 L259.328165,215.677819 L259.328165,84.2230483 C259.328165,77.6318394 253.977031,72.2696853 247.399368,72.2696853 L218.079242,72.2696853 L218.079242,72.0050012 C218.079242,68.1808917 217.777204,64.4264056 217.201263,60.761682 L262.212461,60.761682 Z M82.9778926,72.0050012 C82.9778926,37.0609492 111.348837,8.63100247 146.222222,8.63100247 C181.094459,8.63100247 209.465978,37.0603738 209.465978,72.0050012 L209.465978,103.601375 C209.465978,110.107425 204.184324,115.399955 197.691645,115.399955 L165.51536,115.399955 C163.817399,115.399955 162.277347,116.400001 161.583692,117.953581 L148.01091,148.358301 C147.441286,149.206441 146.579386,149.301958 146.222222,149.301958 C145.865059,149.301958 145.003158,149.206441 144.433534,148.358301 L130.860752,117.953581 C130.167097,116.400001 128.627046,115.399955 126.929084,115.399955 L94.7527993,115.399955 C88.2601206,115.399955 82.9778926,110.106849 82.9778926,103.601375 L82.9778926,72.0050012 Z M23.1874821,69.954275 C23.1874821,64.885575 27.3028998,60.761682 32.3611829,60.761682 L75.2426069,60.761682 C74.6666667,64.4264056 74.3646282,68.1808917 74.3646282,72.0050012 L74.3646282,72.2696853 L46.6006316,72.2696853 C40.0229687,72.2696853 34.6718346,77.6318394 34.6718346,84.2230483 L34.6718346,215.677819 L23.1874821,215.677819 L23.1874821,69.954275 Z M285.386161,240.022425 C285.386161,242.418966 283.440138,244.368998 281.048521,244.368998 L12.9509044,244.368998 C10.559288,244.368998 8.61326443,242.418966 8.61326443,240.022425 L8.61326443,224.308822 L67.0198105,224.308822 C69.3987941,224.308822 71.3264427,222.376628 71.3264427,219.99332 C71.3264427,217.610013 69.3987941,215.677819 67.0198105,215.677819 L43.2850991,215.677819 L43.2850991,84.2230483 C43.2850991,82.3909742 44.7728969,80.9006878 46.6006316,80.9006878 L74.3646282,80.9006878 L74.3646282,103.601375 C74.3646282,114.866559 83.5107666,124.030958 94.7527993,124.030958 L124.137812,124.030958 L136.683893,152.135804 C136.744186,152.271023 136.811944,152.402789 136.886018,152.531679 C138.834912,155.913881 142.325007,157.933536 146.222796,157.933536 C150.120586,157.933536 153.61068,155.914456 155.559575,152.531679 C155.633649,152.403365 155.700833,152.271023 155.7617,152.135804 L168.307781,124.030958 L197.692794,124.030958 C208.934252,124.030958 218.08039,114.865984 218.08039,103.601375 L218.08039,80.9006878 L247.400517,80.9006878 C249.228826,80.9006878 250.716049,82.3909742 250.716049,84.2230483 L250.716049,215.677819 L182.432386,215.677819 L111.56704,215.677819 L84.2463394,215.677819 C81.8673557,215.677819 79.9397071,217.610013 79.9397071,219.99332 C79.9397071,222.376628 81.8673557,224.308822 84.2463394,224.308822 L107.76859,224.308822 C109.718059,232.52381 117.09733,238.654123 125.883434,238.654123 L168.116566,238.654123 C176.90267,238.654123 184.281941,232.52381 186.23141,224.308822 L285.386161,224.308822 L285.386161,240.022425 Z M177.151306,224.308822 C175.538329,227.68527 172.094746,230.023121 168.116566,230.023121 L125.883434,230.023121 C121.90468,230.023121 118.461097,227.68527 116.848694,224.308822 L177.151306,224.308822 Z" id="Shape"></path>
                <path d="M84.2998904,177.885164 L102.489154,177.885164 L103.562348,180.038691 L102.440424,182.383668 L84.3916164,182.383668 C83.0042609,182.383668 81.7023251,183.052597 80.8945632,184.181236 C80.0873745,185.309301 79.8741116,186.757787 80.321849,188.070424 C83.7753325,198.196643 93.2850242,205 103.985434,205 C113.326006,205 121.675364,199.930585 125.999097,191.860448 L170.0012,191.860448 C174.324934,199.930585 182.674292,205 192.014864,205 C202.715273,205 212.224965,198.196643 215.678448,188.070424 C216.126186,186.757787 215.912923,185.309301 215.105734,184.181236 C214.298546,183.05317 212.996037,182.383668 211.608681,182.383668 L193.559873,182.383668 L192.43795,180.038691 L193.511144,177.885164 L211.700407,177.885164 C213.07687,177.885164 214.37078,177.22598 215.179688,176.111672 C215.988597,174.997363 216.215045,173.56378 215.78852,172.254583 C212.426762,161.934047 202.872927,155 192.014864,155 C182.860037,155 174.583486,159.9307 170.197264,167.77958 L146.076769,167.77958 C143.70164,167.77958 141.777114,169.704399 141.777114,172.078609 C141.777114,174.45282 143.70164,176.377638 146.076769,176.377638 L172.884262,176.377638 C174.62247,176.377638 176.190411,175.330968 176.855998,173.724851 C179.407127,167.573227 185.357277,163.598058 192.014864,163.598058 C196.910165,163.598058 201.401298,165.745853 204.447748,169.287106 L190.850517,169.287106 C189.220087,169.287106 187.730113,170.209391 187.002612,171.668195 L183.805388,178.081773 C183.214328,179.267159 183.202863,180.659471 183.77443,181.854601 L186.971654,188.537585 C187.68597,190.030781 189.194863,190.981726 190.850517,190.981726 L204.200661,190.981726 C201.154785,194.359043 196.763403,196.401369 192.014864,196.401369 C185.222554,196.401369 179.228834,192.314425 176.74478,185.989121 C176.098112,184.343452 174.510679,183.261817 172.74266,183.261817 L123.257637,183.261817 C121.489619,183.261817 119.901612,184.344025 119.255518,185.989121 C116.771463,192.314425 110.777743,196.401369 103.985434,196.401369 C99.2368941,196.401369 94.8460858,194.359043 91.7996365,190.981726 L105.149781,190.981726 C106.805435,190.981726 108.314327,190.031354 109.028643,188.537585 L112.225867,181.854601 C112.797435,180.659471 112.786542,179.267159 112.19491,178.081773 L108.997686,171.668195 C108.270184,170.209391 106.78021,169.287106 105.149781,169.287106 L91.5519763,169.287106 C94.5978523,165.745853 99.0895593,163.598058 103.985434,163.598058 C110.643021,163.598058 116.593171,167.573227 119.1443,173.724851 C119.809886,175.330968 121.377828,176.377638 123.116035,176.377638 L128.87872,176.377638 C131.25385,176.377638 133.178376,174.45282 133.178376,172.078609 C133.178376,169.704399 131.25385,167.77958 128.87872,167.77958 L125.803033,167.77958 C121.417384,159.930126 113.140261,155 103.985434,155 C93.1273701,155 83.5735353,161.934047 80.2112046,172.255156 C79.785252,173.564354 80.0111273,174.997936 80.8206091,176.112245 C81.6300909,177.226553 82.9228541,177.885164 84.2998904,177.885164 Z" id="Path"></path>
            </g>
        </g>
    </g>
</svg>
